X:1
T:Bloody Fields of Flanders
M:3/4
L:1/8
Q:80
C:John MacLellan
S:Retreat
K:HP
|: {gef}e3/2c/2{g}A2{GdGe}A3/2B/2|
{GdG}ce{gfg}f2{g}e2|
{g}((3fga){ef}e2{Gdc}d3/2e/2|  !
{gcd}c{e}A{g}c{g}d3/2c/2{gBd}B2|
{gef}e3/2c/2{g}A2{GdGe}A3/2B/2|
{GdG}ce{gfg}f2{g}e2|  !
{g}((3fga){ef}e2{A}e3/2f/2{g}A3/2B/2|
{GdG}c2B{G}A{GAG}A2:| |:
{g}f3/2g/2{ag}a2{g}ae|  !
{g}fa{ef}e2{gcd}c2|
{g}((3fga){ef}e2{Gdc}d3/2e/2|
{gcd}c{e}A{g}c{g}d3/2c/2{gBd}B2|1  !
{g}f3/2g/2{ag}a2{g}ae|
{g}fa{ef}e2{gcd}c2|
{g}((3fga){ef}e2{A}e3/2f/2{g}A3/2B/2|  !
{GdG}c2B{G}A{GAG}A2:|

